public/svg/mobile-nav-close.svg

<svg xmlns="http://www.w3.org/2000/svg" width="25" height="21" fill="none"><path fill="#000" d="m15.625 10.1 8.85 10.9h-6.05l-6.05-7.6-6.05 7.6H.65l8.825-10.55L1.55.475h6.075l5.025 6.55 5.175-6.55H23.4z"/></svg>

<svg width="25" height="21" viewBox="0 0 25 21" fill="none" xmlns="http://www.w3.org/2000/svg">
<path d="M15.625 10.1L24.475 21H18.425L12.375 13.4L6.325 21H0.65L9.475 10.45L1.55 0.474999H7.625L12.65 7.025L17.825 0.474999H23.4L15.625 10.1Z" fill="black"/>
</svg>
